X:1
T:Lady Bird
C:1939 -  Tadd Dameron / Stanley Cornfield
Z:www.realbook.site
L:1/8
M:4/4
I:linebreak $
K:C
V:1 treble nm=" " snm=" "
V:1
"Cmaj7" z G3 G2 G2 | G3 G- G2 G2 |"Fm7" _B4 (3_A2 C2 _E2 |"Bb7" G4 F4 |$"Cmaj7" z G3 G2 G2 | %5
 G2 GG- GG G2 |"Bbm7" c4 (3_B2 _D2 F2 |"Eb7" c4 _B4 ||$"Abmaj7" z _B3 A2 _A2 | _B2 =A_A- A4 | %10
"Am7" z =B3 _B2 =A2 |"D7" =B2 _BA- A4 |$"Dm7" c4- cAFE- |"G7" E4 ^C2 DG- |"Cmaj7" G8-"Ebmaj7" | %15
"Abmaj7" G8"Dbmaj7" |] %16

